Adwaita++-Dark/actions/22/edit-select-all-layers.svg

<svg height="22" viewBox="0 0 22 22" width="22" xmlns="http://www.w3.org/2000/svg">
  <path d="m.50195312 0-.41210937.21875-.05273437.46484375.35351562.3046875.109375.01171875h1l.4140625-.21875.0507813-.46484375-.3535157-.3046875-.109375-.01171875zm2.99999998 0-.4121093.21875-.0527344.46484375.3535156.3046875.109375.01171875h1l.4140625-.21875.0507813-.46484375-.3535157-.3046875-.109375-.01171875zm3 0-.4121093.21875-.0527344.46484375.3535156.3046875.109375.01171875h1l.4140625-.21875.0507813-.46484375-.3535157-.3046875-.109375-.01171875zm3 0-.4121093.21875-.0527344.46484375.3535156.3046875.109375.01171875h1l.414062-.21875.050782-.46484375-.353516-.3046875-.109375-.01171875zm2.9999999 0-.412109.21875-.052735.46484375.353516.3046875.109375.01171875h1l.414062-.21875.050782-.46484375-.353516-.3046875-.109375-.01171875zm2.996094.5-.498047 1 .21875.4140625.464844.0507813.304687-.3535157.009766-.1113281zm-15.18164075 1.5351562-.30664062.3535157-.00976563.1113281v1l.21875.4140625.46484375.0507813.3046875-.3535157.00976563-.1113281v-1l-.21875-.4140625zm2.68359375.9648438v2h6v-2zm12.316406.0351562-.30664.3535157-.009766.1113281v1l.21875.4140625.464844.0507813.304687-.3535157.009766-.1113281v-1l-.21875-.4140625zm-14.99999975 2-.30664062.3535157-.00976563.1113281v1l.21875.4140625.46484375.0507813.3046875-.3535157.00976563-.1113281v-1l-.21875-.4140625zm14.99999975 1-.30664.3535157-.009766.1113281v1l.21875.4140625.464844.0507813.304687-.3535157.009766-.1113281v-1l-.21875-.4140625zm-10.316406.9648438v2h6v-2zm-4.68359375 1.0351562-.30664062.3535157-.00976563.1113281v1l.21875.4140625.46484375.0507813.3046875-.3535157.00976563-.1113281v-1l-.21875-.4140625zm14.99999975 1-.30664.3535157-.009766.1113281v1l.21875.414062.464844.050782.304687-.353516.009766-.111328v-1l-.21875-.4140625zm-8.316406 1.9648438v2h6v-2zm-6.68359375.035156-.30664062.353516-.00976563.111328v1l.21875.414062.46484375.050782.3046875-.353516.00976563-.111328v-1l-.21875-.414062zm14.99999975 1-.30664.353516-.009766.111328v1l.21875.414062.464844.050782.304687-.353516.009766-.111328v-1l-.21875-.414062zm-14.99804662 2-.30859375.353516-.00976563.111328.5 1 .5-1-.21875-.414062zm2.18750002.964844-.421875.21875-.0527344.464844.3535156.304687.1210938.011719h1l.4140625-.21875.0507812-.464844-.3535156-.304687-.1113281-.011719zm3 0-.421875.21875-.0527344.464844.3535156.304687.1210938.011719h1l.4140625-.21875.0507812-.464844-.3535156-.304687-.1113281-.011719zm3 0-.421875.21875-.0527344.464844.3535156.304687.1210938.011719h1l.4140625-.21875.0507812-.464844-.3535156-.304687-.1113281-.011719zm2.9999996 0-.421875.21875-.052734.464844.353516.304687.121093.011719h1l.414063-.21875.050781-.464844-.353515-.304687-.111329-.011719zm3 0-.421875.21875-.052734.464844.353516.304687.121093.011719 1-.5z" fill="#e6ddff" transform="translate(3 3)"/>
</svg>

<svg xmlns="http://www.w3.org/2000/svg" width="22" height="22" viewBox="0 0 22 22">
 <defs>
  <style id="current-color-scheme" type="text/css">
   .ColorScheme-Text { color:#E6DDFF; } .ColorScheme-Highlight { color:#4285f4; }
  </style>
 </defs>
 <path style="fill:currentColor" class="ColorScheme-Text" d="M 0.50195312 0 L 0.08984375 0.21875 L 0.037109375 0.68359375 L 0.390625 0.98828125 L 0.5 1 L 1.5 1 L 1.9140625 0.78125 L 1.9648438 0.31640625 L 1.6113281 0.01171875 L 1.5019531 0 L 0.50195312 0 z M 3.5019531 0 L 3.0898438 0.21875 L 3.0371094 0.68359375 L 3.390625 0.98828125 L 3.5 1 L 4.5 1 L 4.9140625 0.78125 L 4.9648438 0.31640625 L 4.6113281 0.01171875 L 4.5019531 0 L 3.5019531 0 z M 6.5019531 0 L 6.0898438 0.21875 L 6.0371094 0.68359375 L 6.390625 0.98828125 L 6.5 1 L 7.5 1 L 7.9140625 0.78125 L 7.9648438 0.31640625 L 7.6113281 0.01171875 L 7.5019531 0 L 6.5019531 0 z M 9.5019531 0 L 9.0898438 0.21875 L 9.0371094 0.68359375 L 9.390625 0.98828125 L 9.5 1 L 10.5 1 L 10.914062 0.78125 L 10.964844 0.31640625 L 10.611328 0.01171875 L 10.501953 0 L 9.5019531 0 z M 12.501953 0 L 12.089844 0.21875 L 12.037109 0.68359375 L 12.390625 0.98828125 L 12.5 1 L 13.5 1 L 13.914062 0.78125 L 13.964844 0.31640625 L 13.611328 0.01171875 L 13.501953 0 L 12.501953 0 z M 15.498047 0.5 L 15 1.5 L 15.21875 1.9140625 L 15.683594 1.9648438 L 15.988281 1.6113281 L 15.998047 1.5 L 15.498047 0.5 z M 0.31640625 2.0351562 L 0.009765625 2.3886719 L 0 2.5 L 0 3.5 L 0.21875 3.9140625 L 0.68359375 3.9648438 L 0.98828125 3.6113281 L 0.99804688 3.5 L 0.99804688 2.5 L 0.77929688 2.0859375 L 0.31640625 2.0351562 z M 3 3 L 3 5 L 9 5 L 9 3 L 3 3 z M 15.316406 3.0351562 L 15.009766 3.3886719 L 15 3.5 L 15 4.5 L 15.21875 4.9140625 L 15.683594 4.9648438 L 15.988281 4.6113281 L 15.998047 4.5 L 15.998047 3.5 L 15.779297 3.0859375 L 15.316406 3.0351562 z M 0.31640625 5.0351562 L 0.009765625 5.3886719 L 0 5.5 L 0 6.5 L 0.21875 6.9140625 L 0.68359375 6.9648438 L 0.98828125 6.6113281 L 0.99804688 6.5 L 0.99804688 5.5 L 0.77929688 5.0859375 L 0.31640625 5.0351562 z M 15.316406 6.0351562 L 15.009766 6.3886719 L 15 6.5 L 15 7.5 L 15.21875 7.9140625 L 15.683594 7.9648438 L 15.988281 7.6113281 L 15.998047 7.5 L 15.998047 6.5 L 15.779297 6.0859375 L 15.316406 6.0351562 z M 5 7 L 5 9 L 11 9 L 11 7 L 5 7 z M 0.31640625 8.0351562 L 0.009765625 8.3886719 L 0 8.5 L 0 9.5 L 0.21875 9.9140625 L 0.68359375 9.9648438 L 0.98828125 9.6113281 L 0.99804688 9.5 L 0.99804688 8.5 L 0.77929688 8.0859375 L 0.31640625 8.0351562 z M 15.316406 9.0351562 L 15.009766 9.3886719 L 15 9.5 L 15 10.5 L 15.21875 10.914062 L 15.683594 10.964844 L 15.988281 10.611328 L 15.998047 10.5 L 15.998047 9.5 L 15.779297 9.0859375 L 15.316406 9.0351562 z M 7 11 L 7 13 L 13 13 L 13 11 L 7 11 z M 0.31640625 11.035156 L 0.009765625 11.388672 L 0 11.5 L 0 12.5 L 0.21875 12.914062 L 0.68359375 12.964844 L 0.98828125 12.611328 L 0.99804688 12.5 L 0.99804688 11.5 L 0.77929688 11.085938 L 0.31640625 11.035156 z M 15.316406 12.035156 L 15.009766 12.388672 L 15 12.5 L 15 13.5 L 15.21875 13.914062 L 15.683594 13.964844 L 15.988281 13.611328 L 15.998047 13.5 L 15.998047 12.5 L 15.779297 12.085938 L 15.316406 12.035156 z M 0.31835938 14.035156 L 0.009765625 14.388672 L 0 14.5 L 0.5 15.5 L 1 14.5 L 0.78125 14.085938 L 0.31835938 14.035156 z M 2.5058594 15 L 2.0839844 15.21875 L 2.03125 15.683594 L 2.3847656 15.988281 L 2.5058594 16 L 3.5058594 16 L 3.9199219 15.78125 L 3.9707031 15.316406 L 3.6171875 15.011719 L 3.5058594 15 L 2.5058594 15 z M 5.5058594 15 L 5.0839844 15.21875 L 5.03125 15.683594 L 5.3847656 15.988281 L 5.5058594 16 L 6.5058594 16 L 6.9199219 15.78125 L 6.9707031 15.316406 L 6.6171875 15.011719 L 6.5058594 15 L 5.5058594 15 z M 8.5058594 15 L 8.0839844 15.21875 L 8.03125 15.683594 L 8.3847656 15.988281 L 8.5058594 16 L 9.5058594 16 L 9.9199219 15.78125 L 9.9707031 15.316406 L 9.6171875 15.011719 L 9.5058594 15 L 8.5058594 15 z M 11.505859 15 L 11.083984 15.21875 L 11.03125 15.683594 L 11.384766 15.988281 L 11.505859 16 L 12.505859 16 L 12.919922 15.78125 L 12.970703 15.316406 L 12.617188 15.011719 L 12.505859 15 L 11.505859 15 z M 14.505859 15 L 14.083984 15.21875 L 14.03125 15.683594 L 14.384766 15.988281 L 14.505859 16 L 15.505859 15.5 L 14.505859 15 z" transform="translate(3 3)"/>
</svg>
